public/favicon.svg

<svg xmlns="http://www.w3.org/2000/svg" width="888" height="888" fill="none" xmlns:v="https://vecta.io/nano"><rect width="888" height="888" rx="128" fill="#fff"/><path d="M204.621 324.311c9.348-65.439 54.251-110.342 119.689-119.69C427.778 189.84 444 443.999 444 443.999m0 0s-16.222 254.161-119.69 239.38c-65.438-9.348-110.341-54.251-119.689-119.69C189.84 460.222 444 443.999 444 443.999zm0 0s16.222-254.159 119.69-239.378c65.438 9.348 110.341 54.251 119.689 119.69 7.612 53.282-56.097 83.428-119.689 100.136S444 443.999 444 443.999zm0 0s254.16 16.223 239.379 119.69c-9.348 65.439-54.251 110.342-119.689 119.69-53.282 7.612-83.428-56.097-100.136-119.69S444 443.999 444 443.999z" stroke="#260698" stroke-width="88"/></svg>

<svg width="888" height="888" viewBox="0 0 888 888" fill="none" xmlns="http://www.w3.org/2000/svg">
<rect width="888" height="888" rx="128" fill="white"/>
<path d="M204.621 324.311C213.969 258.872 258.872 213.969 324.31 204.621C427.778 189.84 444 443.999 444 443.999M444 443.999C444 443.999 427.778 698.16 324.31 683.379C258.872 674.031 213.969 629.128 204.621 563.689C189.84 460.222 444 443.999 444 443.999ZM444 443.999C444 443.999 460.222 189.84 563.69 204.621C629.128 213.969 674.031 258.872 683.379 324.311C690.991 377.593 627.282 407.739 563.69 424.447C500.098 441.155 444 443.999 444 443.999ZM444 443.999C444 443.999 698.16 460.222 683.379 563.689C674.031 629.128 629.128 674.031 563.69 683.379C510.408 690.991 480.262 627.282 463.554 563.689C446.846 500.096 444 443.999 444 443.999Z" stroke="#260698" stroke-width="88"/>
</svg>
